src/assets/icons/shapes,simple,outline-octagon.svg

<svg width="48" height="48" viewBox="0 0 48 48" fill="none" xmlns="http://www.w3.org/2000/svg">
<rect opacity="0.2" x="5" y="5" width="38" height="38" rx="4" fill="black"/>
<path d="M22.852 11.5579C23.6826 11.2139 23.8473 11.1648 24 11.1648C24.1527 11.1648 24.3174 11.2139 25.1481 11.5579L31.9861 14.3903C32.8167 14.7344 32.9679 14.8162 33.0759 14.9241C33.1838 15.0321 33.2656 15.1833 33.6097 16.0139L36.4421 22.852C36.7861 23.6826 36.8352 23.8473 36.8352 24C36.8352 24.1527 36.7861 24.3174 36.4421 25.1481L33.6097 31.9861C33.2656 32.8167 33.1838 32.9679 33.0759 33.0759C32.9679 33.1838 32.8167 33.2656 31.9861 33.6097L25.148 36.4421C24.3174 36.7861 24.1527 36.8352 24 36.8352C23.8473 36.8352 23.6826 36.7861 22.8519 36.4421L16.0139 33.6097C15.1833 33.2656 15.0321 33.1838 14.9241 33.0759C14.8162 32.9679 14.7344 32.8167 14.3903 31.9861L11.5579 25.148C11.2139 24.3174 11.1648 24.1527 11.1648 24C11.1648 23.8473 11.2139 23.6826 11.5579 22.8519L14.3903 16.0139C14.7344 15.1833 14.8162 15.0321 14.9241 14.9241L14.217 14.217L14.9241 14.9241C15.0321 14.8162 15.1833 14.7344 16.0139 14.3903L22.852 11.5579Z" stroke="black" stroke-width="2"/>
</svg>

<svg xmlns="http://www.w3.org/2000/svg" width="48" height="48" fill="none" viewBox="0 0 48 48">
  <rect width="38" height="38" x="5" y="5" fill="#000" opacity=".2" rx="4"/>
  <path stroke="#000" stroke-width="2" d="M25.148 11.558l6.838 2.832c.83.344.982.426 1.09.534.108.108.19.26.534 1.09l2.832 6.838c.344.83.393.995.393 1.148 0 .153-.049.317-.393 1.148l-2.832 6.838c-.344.83-.426.982-.534 1.09-.108.108-.26.19-1.09.534l-6.838 2.832c-.83.344-.995.393-1.148.393-.153 0-.317-.049-1.148-.393l-6.838-2.832c-.83-.344-.982-.426-1.09-.534-.108-.108-.19-.26-.534-1.09l-2.832-6.838c-.344-.83-.393-.995-.393-1.148 0-.153.049-.317.393-1.148l2.832-6.838c.344-.83.426-.982.534-1.09.108-.108.26-.19 1.09-.534l6.838-2.832c.83-.344.995-.393 1.148-.393.153 0 .317.049 1.148.393z"/>
</svg>
